!!!OTL: EIN MAEKEN VON ACHTEIN JAHREN
!!!ARE: Europa, Mitteleuropa, Deutschland, Westfalen, Paderborn
!!!SCT: E0211B
!!!YEM: Copyright 1995, estate of Helmut Schaffrath.
**kern
*ICvox
*Ivox
*M6/8
*k[f#]
*e:
{8e
=1
8.e
16b
8b
8b
8a
8ccn
=2
4b
8gn
4f#}
{8gn
=3
8.e
16f#
8gn
8a
8b
8gn
=4
2f#
8r}
{16e
16f#
=5
8.gn
16f#
8e
8gn
8f#
8e
=6
4a
8ccn
4b}
{8a
=7
8.gn
16f#
8e
8.f#
16gn
8f#
=8
2e
8r}
==
!!!AGN: erzaehlendes Volks - Lied, Mahn -, Moral - Lied, Strafe; Untreue
!!!ONB: ESAC (Essen Associative Code) Database: ERK1
!!!AMT: compound duple
!!!AIN: vox
!!!EED: Helmut Schaffrath
!!!EEV: 1.0
*-
